X:1
T:Title
%%score { ( 1 3 ) | ( 2 4 ) }
L:1/8
M:6/8
K:Bb
V:1 treble nm="Grand Piano"
V:3 treble 
V:2 bass 
V:4 bass 
V:1
 z3 z2[Q:1/4=90] [DF] | [DB][DB][DB] [DF][DF][DF] | GGG [=Ec]2 [EB] | AAA ABc | [DB]3- [DB]2 [DF] | %5
 [DB][DB][DB] [DF][DF][DF] |[M:5/8] GGG [=Ec]2 |[M:1/8] [EB] |[M:3/4] AA AA Bc | %9
[M:5/8] [DB]- [DB]3 z |[M:1/8] z |[M:3/4] [Fd]4 z2 | BA A A2 F | e4 z2 | [Ec][DB] [DB] [DB]2 [Fd] | %15
 [Ff]4 z2 | [Gd][Gc] [Gd] [Ge]2 [Gc] | %17
 BB BA Bc[Q:1/4=87][Q:1/4=84][Q:1/4=82][Q:1/4=79][Q:1/4=76][Q:1/4=73][Q:1/4=70] |[M:5/8] B-B- B3 |] %19
V:2
 z3 z2 [B,,F,] | [B,,F,][B,,F,][B,,F,] [B,,B,][B,,B,][B,,B,] | [E,B,E][E,B,E][E,E] [C,G,]2 [C,C] | %3
 [F,CF][F,CF][F,CF] [F,CF][F,G,=E][F,A,_E] | [B,,B,]3- [B,,B,]2 [B,,B,] | %5
 [B,,F,][B,,F,][B,,F,] [B,,B,][B,,B,][B,,B,] |[M:5/8] [E,B,E][E,B,E][E,E] [C,G,]2 |[M:1/8] [C,C] | %8
[M:3/4] [F,CF][F,CF] [F,CF][F,CF] [F,G,=E][F,A,_E] |[M:5/8] [B,,B,]- [B,,B,]3 z |[M:1/8] [F,F] | %11
[M:3/4] [B,,B,]B,, B,,B,, [B,,B,][B,,B,] | [F,D][F,C] [F,C] [F,C]2 F, | F4 z2 | %14
 [B,,F,][B,,F,] [B,,F,] [B,,F,]2 [B,,B,] | [B,D]B, B,B,[K:treble] [B,G][B,F] | %16
 [E,G,][E,G,] [D,=B,] [C,C]2 [E,C] | [F,DF][F,DF] [F,DF][F,CF] [F,G,=E][F,A,_E] | %18
[M:5/8] z F,G, F,2 |] %19
V:3
 x6 | x6 | x6 | x6 | x6 | x6 |[M:5/8] x5 |[M:1/8] x |[M:3/4] x6 |[M:5/8] x5 |[M:1/8] x | %11
[M:3/4] z B, B,B, [Ec][DB] | x6 | z A, A,A, dc | x6 | z D DD ed | x6 | x6 |[M:5/8] [B,D]DE D2 |] %19
V:4
 x6 | x6 | x6 | x6 | x6 | x6 |[M:5/8] x5 |[M:1/8] x |[M:3/4] x6 |[M:5/8] x5 |[M:1/8] x | %11
[M:3/4] x6 | x6 | [F,A,]F, F,F, [F,A,F][F,A,E] | x6 | x4[K:treble] x2 | x6 | x6 | %18
[M:5/8] B,,-B,,- B,,3 |] %19

